X: 2
T: John Brosnan's
R: reel
M: 4/4
L: 1/8
K: Ador
E~A3 EABd|egdB cBAG|E~G3 EGDG|E~G3 dGBG| E~A3 EABd|egdB cBAG|~e2dB cBAG|1 EAAG ~A3G:|2 ~A3G ~A2 (3Bcd|||:e~A3 eA (3Bcd|~e2 af gedg|e~A3 eAge|~d2BG DG (3Bcd|e~A3 eA (3Bcd|~e2 af gedg|~e2 dB cBAG|1 EAAG ~A2 (3Bcd:|2 EAAG ~A3G||


Tune 3081	Setting 16206

